!!!COM: Music21
!!!OTL: mazurka_La-Disillusa
!!!OMV: mazurka_La-Disillusa
**kern
*clefG2
*k[f#]
*e:
*M3/4
=1
8e
8e
8g
=
4.b
8a
8ccL
8aJ
=
4.b
8b
8aL
8gJ
=
4.f#
8f#
8gL
8aJ
=
8gL
8f#J
8eL
8dJ
8eL
8gJ
=
4.b
8a
8ccL
8aJ
=
4.b
8b
8aL
8gJ
!!linebreak:original
=
4f#
8f#L
8gJ
8aL
8gJ
=
4.f#
8e
8eL
8gJ
=||
4.b
8a
8ccL
8aJ
=
4.b
8b
8aL
8gJ
=
4f#
8f#L
8aJ
8gL
8f#J
=
8gL
8f#J
8eL
8dJ
8eL
8gJ
=
4.b
8a
8ccL
8aJ
!!linebreak:original
=
4.b
8b
8aL
8gJ
=
8f#L
8eJ
8f#L
8aJ
8gL
8f#J
=
4.e
8e
8f#L
8gJ
=||
4a
8aL
8ccJ
8bL
8aJ
=
8bL
8gJ
8eL
8eJ
8f#L
8gJ
=
8aL
16bL
16aJJ
8gL
8aJ
8ddL
8ccJ
=
4.b
8g
8aL
8a#XJ
!!linebreak:original
=
4b
8bL
8ccJ
8bL
8aJ
=
8gL
8bJ
8eL
8eJ
8f#L
8gJ
=
4f#
8f#L
8eJ
8d#XL
8eJ
=
4.f#
8f#
8gL
8g#XJ
=
4a
8aL
8ccJ
8bL
8aJ
=
8bL
8gJ
8eL
8eJ
8f#L
8gJ
=
8aL
16bL
16aJJ
8gL
8aJ
8ddL
8ccJ
!!linebreak:original
=
4.b
8b
8aL
8gJ
=
4a
8aL
8ccJ
8bL
8aJ
=
8gL
8bJ
8eL
8eJ
8f#L
8gJ
=
8f#L
8eJ
8f#L
8aJ
8gL
8f#J
=
2e
4r
=||
*-
